X: 20
T: Miss Randles Whim
%C: Mr. Gray
%R: reel
B: Mr. Gray "24 Country Dances for the Year 1803" p.10 #2
S: http://imslp.org/wiki/24_Country_Dances_for_the_Year_1803_(Various)  2013-12-2
Z: 2013 John Chambers <jc:trillian.mit.edu>
M: 2/4
L: 1/16
K: A
f |\
ecAc BE2d | ecAe fgaf |\
ecAc BE2A | FdBG A2 A :|
|: e |\
fAeA fAeA | afec BE2e |\
faea gafa | ecBc A2 A :|
% - - - - - - - - - - - - - - - - - - - - - - - - -
%%begintext align
%% 1st Lady set to the 2d Gent: & turn the 3d
%% lead down the middle up again & Allemand.
%%endtext

%%sep 1 1 500
%%sep 1 1 500
